!!!!SEGMENT: 074-1c-LW-007.krn
!!!COM: Chopin, Fryderyk
!!!OTL: No. 7. The Messenger. (Der Bote.)
!!!OPS: Op. 74
!!!PTL: 17 | POLISH SONGS
!!!PPR: Stanley Lucas, Weber & Co.
!!!PPP: London
!!!AGN: Song
!!!NIFC-rismID: BRAK
!!!NIFC-shelfmark: PL-Wbfc 6139/n
!!!OMD: Andantino. M. M. [quarter] = 100.
**kern	**kern	**dynam	**kern	**text	**text	**text	**text	**text	**text	**dynam
*part2	*part2	*part2	*part1	*	*	*	*	*	*	*part1
*staff3	*staff2	*	*staff1	*	*	*	*	*	*	*
*I"PIANO.	*I"PIANO.	*	*	*	*	*	*	*	*	*
*clefF4	*clefG2	*	*clefG2	*	*	*	*	*	*	*
*k[b-]	*k[b-]	*	*k[b-]	*	*	*	*	*	*	*
*F:	*F:	*	*F:	*	*	*	*	*	*	*
*M2/4	*M2/4	*	*M2/4	*	*	*	*	*	*	*
*	*	*	*	*	*	*	*	*	*	*
*>[A,A,A,B]	*	*	*	*	*	*	*	*	*	*
=1	=1	=1	=1	=1	=1	=1	=1	=1	=1	=1
*>A	*>A	*>A	*>A	*>A	*>A	*>A	*>A	*>A	*>A	*>A
*	*^	*	*	*	*	*	*	*	*	*
!	!	!	!LO:DY:rj	!LO:TX:t=P:w źródle brak pustych 8 taktów partii wokalnej; system zawiera tylko pierwsze 8 taktów partii fotepianu:problem	!	!	!	!	!	!	!
2c 2F	2cc	8.b-L	p	2r	.	.	.	.	.	.	.
.	.	16aJk	.	.	.	.	.	.	.	.	.
.	.	16gLL	.	.	.	.	.	.	.	.	.
.	.	16aJ	.	.	.	.	.	.	.	.	.
.	.	8fJ	.	.	.	.	.	.	.	.	.
=2	=2	=2	=2	=2	=2	=2	=2	=2	=2	=2	=2
2c 2F	2cc	8.b-L	.	2r	.	.	.	.	.	.	.
.	.	16aJk	.	.	.	.	.	.	.	.	.
.	.	16gLL	.	.	.	.	.	.	.	.	.
.	.	16aJ	.	.	.	.	.	.	.	.	.
.	.	8fJ	.	.	.	.	.	.	.	.	.
=3	=3	=3	=3	=3	=3	=3	=3	=3	=3	=3	=3
*^	*	*	*	*	*	*	*	*	*	*	*
16dLL	2F	16bXLL	8g#X	.	2r	.	.	.	.	.	.	.
16BXJJ	.	16ddJJ	.	.	.	.	.	.	.	.	.	.
4.c	.	4.cc	4.a	.	.	.	.	.	.	.	.	.
=4	=4	=4	=4	=4	=4	=4	=4	=4	=4	=4	=4	=4
16dLL	2F	16bXLL	8g#X	.	2r	.	.	.	.	.	.	.
16BXJJ	.	16ddJJ	.	.	.	.	.	.	.	.	.	.
4.c	.	4.cc	4.a	.	.	.	.	.	.	.	.	.
*v	*v	*	*	*	*	*	*	*	*	*	*	*
=5	=5	=5	=5	=5	=5	=5	=5	=5	=5	=5	=5
2c 2F	2cc	8.b-L	.	2r	.	.	.	.	.	.	.
.	.	16aJk	.	.	.	.	.	.	.	.	.
.	.	16gLL	.	.	.	.	.	.	.	.	.
.	.	16aJ	.	.	.	.	.	.	.	.	.
.	.	8fJ	.	.	.	.	.	.	.	.	.
!!LO:LB:g=original
=6	=6	=6	=6	=6	=6	=6	=6	=6	=6	=6	=6
2c 2F	2cc	8.b-L	.	2r	.	.	.	.	.	.	.
.	.	16aJk	.	.	.	.	.	.	.	.	.
.	.	16gLL	.	.	.	.	.	.	.	.	.
.	.	16aJ	.	.	.	.	.	.	.	.	.
.	.	8fJ	.	.	.	.	.	.	.	.	.
=7	=7	=7	=7	=7	=7	=7	=7	=7	=7	=7	=7
*^	*	*	*	*	*	*	*	*	*	*	*
16GLL	2C	2cc	16eLL	.	2r	.	.	.	.	.	.	.
16AJJ	.	.	16cJJ	.	.	.	.	.	.	.	.	.
4.G	.	.	4.e	.	.	.	.	.	.	.	.	.
=8	=8	=8	=8	=8	=8	=8	=8	=8	=8	=8	=8	=8
16GLL	2C;	2cc;	16eLL	.	2r;	.	.	.	.	.	.	.
16AJJ	.	.	16cJJ	.	.	.	.	.	.	.	.	.
4.G;	.	.	4.e;<	.	.	.	.	.	.	.	.	.
*v	*v	*	*	*	*	*	*	*	*	*	*	*
*	*v	*v	*	*	*	*	*	*	*	*	*
=9	=9	=9	=9	=9	=9	=9	=9	=9	=9	=9
!	!	!	!LO:TX:t=P:w całej pieśni tekst niemiecki zapisany kursywą:problem	!	!	!	!	!	!	!LO:HP:a
!	!	!	!LO:TX:t=P:w źródle w miejscu myślinków rozdzielających sylaby występują podkreślniki:problem	!	!	!	!	!	!	!
!	!	!	!LO:TX:t=P:w miejscu spacji za "1." (x1) i "2." i "3" (x2) wyświetla się kreska / łuczek:problem	!	!	!	!	!	!	!
4c 4F	4a 4f	pp	8f	1.Flow’rs	2. Thy	3. On	1. Blü-	2. Dei-	3. Hier	<
.	.	.	8g	a-	de-	her	-hen	-ne	am	.
8cL 8F	8aL 8f	.	8a	-dorn	-li-	mo-	Flur	sü-	Hals	.
8cJ 8F	8aJ 8f	.	8dd\	the	-cious	-ther’s	und	-ssen	der	[
=10	=10	=10	=10	=10	=10	=10	=10	=10	=10	=10
*^	*	*	*	*	*	*	*	*	*	*
!	!	!	!	!	!	!	!	!	!	!	!LO:HP:a
2c	4F	2a 2f	.	4cc	mea-	voice	bo-	Fel-	Lie-	Mut-	>
.	(<32qqE/LLL<	.	.	.	.	.	.	.	.	.	.
.	32qqD/JJJ	.	.	.	.	.	.	.	.	.	.
.	4C)	.	.	4a	-dows,	with	-som	-der,	-der	-ter	]
*v	*v	*	*	*	*	*	*	*	*	*	*
=11	=11	=11	=11	=11	=11	=11	=11	=11	=11	=11
!	!	!	!	!	!	!	!	!	!	!LO:HP:a
!	!	!	!LO:TX:t=P:w źródle brak myślnika rozdzielającego sylaby w "brighter":problem	!	!	!	!	!	!	!
!	!	!	!LO:TX:t=P:w źródle brak myślnika rozdzielającego sylaby w "weeping":problem	!	!	!	!	!	!	!
!	!	!	!LO:TX:t=P:w źródle brak myślnika rozdzielającego sylaby w "wärmer":problem	!	!	!	!	!	!	!
4c 4F	4a 4f	.	8f	brigh-	joy	wee-	wär-	hör’	hat	<
.	.	.	8g	-ter	my	-ping	-mer	ich	sie	.
!	!	!	!	!	!	!	!	!	!	!LO:HP:a
!	!	!	!LO:TX:t=P:w źródle brak myślnika rozdzielającego sylaby w "sunbeams":problem	!	!	!	!	!	!	!
8dL 8F	8aL 8f	.	8a	sun-	spi-	sore	scheint	ja	noch	[>
8dJ 8G	8bXJ 8f	.	(<16bXLL	-beams	-rit	she	die	so	ge-	.
.	.	.	16aJJ)	.	.	.	.	.	.	]]
!!LO:LB:g=original
=12	=12	=12	=12	=12	=12	=12	=12	=12	=12	=12
(>4c 4G 4C	(>4cc 4e	.	4g	warm	hear-	laid	Son-	ger-	-wei-	]
8G\ 8C\)	8ee 8g)	.	8e	us,	-eth,	her,	-ne,	-ne,	-net,	.
8r	8r	.	8r	.	.	.	.	.	.	.
=13	=13	=13	=13	=13	=13	=13	=13	=13	=13	=13
!	!	!	!LO:TX:t=P:w źródle brak myślnika rozdzielającego sylaby w "Follow’d":problem	!	!	!	!	!	!	!
4c 4F	4a 4f	.	8f	Night-	Voice,	Fol-	Nach-	füh-	folg-	.
!	!	!	!	!	!	!	!	!	!	!LO:HP:a
.	.	.	8g	-in-	my	-low’d	-ti-	-ren	-te	<
!	!	!	!LO:TX:t=P:w źródle brak myślnika rozdzielającego sylaby w "thoughtsand":problem	!	!	!	!	!	!	!
8cL 8F	8aL 8f	.	8a	-gale,	thought-	then	-gall	die	dem	.
8cJ 8F	8aJ 8f	.	8dd\	thou	-sand	the	du	Ge-	Sol-	[
=14	=14	=14	=14	=14	=14	=14	=14	=14	=14	=14
*^	*	*	*	*	*	*	*	*	*	*
!	!	!	!	!	!	!	!	!	!	!	!LO:HP:a
2c	4F	2a 2f	.	4cc	tell-	long-	sol-	kün-	-dan-	-da-	>
.	(<32qqE/LLL<	.	.	.	.	.	.	.	.	.	]
.	32qqD/JJJ	.	.	.	.	.	.	.	.	.	.
.	4C)	.	.	4a	-est	-ings	-dier	-dest	-ken	-ten,	.
*v	*v	*	*	*	*	*	*	*	*	*	*
=15	=15	=15	=15	=15	=15	=15	=15	=15	=15	=15
4A 4D	4a 4f	.	8f	spring	far	who	Len-	in	dem	.
.	.	.	8g	is	a-	his	-zes	die	sie	.
8AL 8D	8aL 8f 8d	.	8a	here	-way	bride	glück	wei-	sich	.
!	!	!	!	!	!	!	!	!	!	!LO:HP:a
8AJ 8D	8aJ 8f 8d	.	(>16ccLL	to	that	had	und	-te	ver-	>
.	.	.	16b-JJ)	.	.	.	.	.	.	]
=16	=16	=16	=16	=16	=16	=16	=16	=16	=16	=16
2A 2AA	2a 2e 2c#X	sf	4b-	charm	bear-	made	Won-	Fer-	-ei-	.
.	.	.	8a	us;	-eth,	her:	-ne,	-ne;	-net.	.
.	.	.	8r	.	.	.	.	.	.	.
!!LO:PB:g=original
=17	=17	=17	=17	=17	=17	=17	=17	=17	=17	=17
!LO:TX:a:i:t=appassionato.	!	!	!LO:TX:a:i:t=appassionato.	!LO:HP:a	!	!	!	!	!	!
!	!LO:TX:b:t=P:note position (x4):problem	!	!	!	!	!	!	!	!	!
8c#XL	8aL 8g 8e	.	8a	With	Far	Fly	hast	füh-	Flieg’	<
8c#	8a 8g 8e	.	8a	thy	to	to	ja	-ren	zu	[
!	!	!	!	!	!	!	!	!	!	!LO:HP:a
8c#	8a 8g 8e	.	8b-/	song	her,	her,	Leid	zu	ihr	>
8c#J	8aJ 8g 8e	.	8a	my	my	and	und	der	und	]
=18	=18	=18	=18	=18	=18	=18	=18	=18	=18	=18
!	!	!	!	!	!	!	!	!	!	!LO:HP:a
8dL	8aL 8f	.	4ff	sor-	dar-	ask	Kum-	Hol-	sie-	>
8d	8a 8f	.	.	.	.	.	.	.	.	.
8d	8b- 8f	.	8dd	-row	-ling,	her	-mer	-den,	-he,	]
8dJ	8b-J 8f	.	8r	.	.	.	.	.	.	.
=19	=19	=19	=19	=19	=19	=19	=19	=19	=19	=19
!	!	!	!	!	!	!	!	!	!	!LO:HP:a
!	!LO:TX:b:i:t=accel&colon;	!	!LO:TX:a:i:t=accel&colon;	!	!	!	!	!	!	!
!	!LO:TX:b:t=P:note position (x4):problem	!	!	!	!	!	!	!	!	!
8eL	8ccL 8b- 8g	.	8dd\	many	for	“art	oft	die	ob	>
8e	8cc 8b- 8g	.	8cc	a	I	thou	von	mein	sie	]
!	!	!	!	!	!	!	!	!	!	!LO:HP:a
8e	8cc 8b- 8g	.	8dd\	time	love	hap-	mir	Glück	Glück	>
8eJ	8ccJ 8b- 8g	.	8cc	thou	her	-py-	ge-	hie-	er-	]
=20	=20	=20	=20	=20	=20	=20	=20	=20	=20	=20
*	*^	*	*	*	*	*	*	*	*	*
!	!	!LO:TX:b:i:t=rall&colon;	!	!LO:TX:a:i:t=rall&colon;	!	!	!	!	!	!	!
!	!	!LO:TX:b:t=P:"rall:" i "a tempo" w jednej linii:problem	!	!	!	!	!	!	!	!	!
4f	2cc	4a	.	(>[>4cc	cheer-	-on	-heart-	-nom-	-nie-	-wor-	.
.	.	.	.	.	.	.	.	.	.	.	.
!	!	!LO:TX:b:i:t=a tempo.	!	!LO:TX:a:i:t=a tempo.	!	!	!	!	!	!	!
[>4c	.	4g 4e	.	16ccLL]	.	.	.	.	.	.	.
.	.	.	.	16b-JJ)	.	.	.	.	.	.	.
.	.	.	.	(<16aLL	-est;	-ly,	-ed?”	-men,	-den,	-ben;	.
.	.	.	.	16gJJ)	.	.	.	.	.	.	.
*	*v	*v	*	*	*	*	*	*	*	*	*
=21	=21	=21	=21	=21	=21	=21	=21	=21	=21	=21
!	!	!	!	!	!	!	!	!	!	!LO:HP:a
4c] 4F	4a 4f	pp	8f	Har-	Ah!	Tell	sei,	ach	sag’	.
.	.	.	.	.	.	.	.	.	.	<
.	.	.	8g	-bing-	while	me	du	mit	mir,	.
!	!	!	!LO:TX:t=P:w źródle brak myślnika rozdzielającego sylaby w "Frühlings":problem	!	!	!	!	!	!	!
8cL 8F	8aL 8f	.	8a	-er	thou	if	Früh-	dei-	ob	.
8cJ 8F	8aJ 8f	.	8dd\	of	wert	she	-lings-	-nen	sie	[
!!LO:LB:g=original
=22	=22	=22	=22	=22	=22	=22	=22	=22	=22	=22
*^	*	*	*	*	*	*	*	*	*	*
!	!	!	!	!LO:TX:t=P:w źródle brak myślnika rozdzielającego sylaby w "springtime":problem	!	!	!	!	!	!	!
2c	4F	4a 4f	.	(<4cc	spring-	sing-	liv-	-bo-	Klän-	le-	.
.	(<32qqE/LLL<	.	.	.	.	.	.	.	.	.	.
.	32qqD/JJJ	.	.	.	.	.	.	.	.	.	.
!	!	!	!	!	!	!	!	!	!	!	!LO:HP:a
.	4C)	4a 4f	.	8a)	-time,	-ing	-eth,	-te,	.	.	>
.	.	.	.	8g	how	she	or	mir	-gen	-bet,	]
*v	*v	*	*	*	*	*	*	*	*	*	*
=23	=23	=23	=23	=23	=23	=23	=23	=23	=23	=23
!	!	!	!LO:TX:t=P:w źródle brak myślnika rozdzielającego sylaby w "welcome":problem	!	!	!	!	!	!	!
4c 4F	4a 4f)	.	(<8f	wel-	left	if	freund-	war	ob	.
!	!	!	!	!	!	!	!	!	!	!LO:HP:a
.	.	.	.	.	.	.	.	.	.	<
.	.	.	8g)	-come	me	she	.	auch	sie	.
8dL 8F	8aL 8f	.	8a	thou	sad	hath	-lich	sie	ist	.
.	.	.	.	.	.	.	.	.	.	[
8dJ 8G	8bXJ 8f	.	(<16bXLL	ap-	and	de-	will-	ge-	ge-	.
.	.	.	16aJJ)	.	.	.	.	.	.	.
=24	=24	=24	=24	=24	=24	=24	=24	=24	=24	=24
(>4c 4G 4C	(>4cc 4e	.	4g	-pear-	lone-	-part-	-kom-	-schie-	-stor-	.
8G\ 8C\)	8ee 8g)	.	8e	-est,	-ly,	-ed,	-men,	-den,	-ben,	.
8r	8r	.	8r	.	.	.	.	.	.	.
=25	=25	=25	=25	=25	=25	=25	=25	=25	=25	=25
!	!	!	!LO:TX:t=P:w źródle brak pierwszego myślnika rozdzielającego sylaby w "Harbinger":problem	!	!	!	!	!	!	!
4c 4F	4a 4f	.	8f	Har-	Ah!	Tell	sei,	ach	sag’	.
!	!	!	!	!	!	!	!	!	!	!LO:HP:a
.	.	.	.	.	.	.	.	.	.	<
.	.	.	8g	-bing-	while	me	du	mit	mir,	.
8cL 8F	8aL 8f	.	8a	-er	thou	if	Früh-	dei-	ob	.
8cJ 8F	8aJ 8f	.	8dd\	of	wert	she	-lings-	-nen	sie	[
=26	=26	=26	=26	=26	=26	=26	=26	=26	=26	=26
!	!	!	!LO:TX:t=P:w źródle brak myślnika rozdzielającego sylaby w "springtime":problem	!	!	!	!	!	!	!
4c 4F	4a 4f	.	(<4cc	spring-	sing-	liv-	-bo-	Klän-	le-	.
!	!	!	!	!	!	!	!	!	!	!LO:HP:a
8cL 8F	8aL 8f	.	8a)	-time,	-ing	-eth,	-te,	.	.	<
8cJ 8F	8aJ 8f	.	8cc	how	she	or	mir	-gen	-bet,	[[
!!LO:LB:g=original
=27	=27	=27	=27	=27	=27	=27	=27	=27	=27	=27
!	!	!	!LO:TX:t=P:w źródle brak myślnika rozdzielającego sylaby w "welcome":problem	!	!	!	!	!	!	!
4BB-/	4b- 4f 4d-X	sf	8dd-X	wel-	left	if	freund-	war	ob	.
!	!	!	!	!	!	!	!	!	!	!LO:HP:a
.	.	.	.	.	.	.	.	.	.	>
.	.	.	8cc	-come	me	she	.	auch	sie	.
8C\L>	8b-L 8e 8c	.	8b-	thou	sad	hath	-lich	sie	ist	.
.	.	.	.	.	.	.	.	.	.	]
8CJ	8b-J 8e 8c	.	8g	ap-	and	de-	will-	ge-	ge-	.
=28	=28	=28	=28	=28	=28	=28	=28	=28	=28	=28
!	!	!	!	!	!	!	!	!	!	!LO:HP:a
4F	2a 2f 2c	.	(<8.aL	-pear-	lone-	-part-	kom-	-schie-	-stor-	>
.	.	.	16gJk)	.	.	.	.	.	.	.
4FF/	.	.	4f	-est.	-ly.	-ed.	-men!	-den!	-ben.	]
=29:||	=29:||	=29:||	=29:||	=29:||	=29:||	=29:||	=29:||	=29:||	=29:||	=29:||
*>B	*>B	*>B	*>B	*>B	*>B	*>B	*>B	*>B	*>B	*>B
*	*^	*	*	*	*	*	*	*	*	*
2c 2F	(>16aaL	2a	pp	2r	.	.	.	.	.	.	.
.	16ccJ	.	.	.	.	.	.	.	.	.	.
.	4.ff)	.	.	.	.	.	.	.	.	.	.
=30	=30	=30	=30	=30	=30	=30	=30	=30	=30	=30	=30
2c 2F	(>16aaL	2a	.	2r	.	.	.	.	.	.	.
.	16ccJ	.	.	.	.	.	.	.	.	.	.
.	4.ff)	.	.	.	.	.	.	.	.	.	.
=31	=31	=31	=31	=31	=31	=31	=31	=31	=31	=31	=31
[>2c [<2F	(>16aaL	2a	.	2r	.	.	.	.	.	.	.
.	16cc	.	.	.	.	.	.	.	.	.	.
.	8ffJ)	.	.	.	.	.	.	.	.	.	.
.	(>16aaL	.	.	.	.	.	.	.	.	.	.
.	16cc	.	.	.	.	.	.	.	.	.	.
.	8ffJ)	.	.	.	.	.	.	.	.	.	.
*	*v	*v	*	*	*	*	*	*	*	*	*
=32	=32	=32	=32	=32	=32	=32	=32	=32	=32	=32
!	!	!	!LO:TX:b:t=P:w źródle obie kreski końcące utwór są grube:problem	!	!	!	!	!	!	!
2c];> 2F]	2fff;>	.	2r;	.	.	.	.	.	.	.
.	.	.	.	.	.	.	.	.	.	.
==	==	==	==	==	==	==	==	==	==	==
*-	*-	*-	*-	*-	*-	*-	*-	*-	*-	*-
!!title: @{OTL}; @{OPS} @{ONM} publisher: @{PPR}
!!!system-decoration: (s1){(s2,s3)}
!!!RDF**kern: > = above
!!!RDF**kern: < = below
!!!ENC: Emilia Ziętek
!!!END: 2020-02-08
!!!EED: Antoni Szymański
!!!EST: revision finished 2020-02-12
